icons/glyphs/glyph-viber.svg

<?xml version="1.0" encoding="UTF-8" standalone="no"?><svg height="16" viewBox="0 0 4.2333332 4.2333332" width="16" xmlns="http://www.w3.org/2000/svg"><sodipodi:namedview/><metadata><rdf:RDF><cc:Work><dc:format>image/svg+xml</dc:format><dc:type/><dc:title/></cc:Work></rdf:RDF></metadata><path d="m1.1140351 0c-.6171755 0-1.1140351.4968596-1.1140351 1.1140351v1.1140351c0 .5795584.4381594 1.0530332 1.0026316 1.1085955v.8966675l.8912281-.8912279h1.2254386c.6171754 0 1.1140349-.4968597 1.1140349-1.1140351v-1.1140351c0-.6171755-.4968595-1.1140351-1.1140349-1.1140351zm1.2130363.445614h.0008673c.2821072.002.5272259.095218.7191184.2756802.097166.091585.171636.2017111.2206312.3261599.048412.1231789.073155.2631479.074414.4153697v.0002228c.0004337.052286-.04448.095889-.098566.09639-.0000668.0000223-.00108.0002228-.00109.0002228-.053964 0-.098662-.042913-.099219-.094867v-.0002226c-.0020255-.2611632-.0819292-.4612996-.2352092-.6057566-.1551071-.1458116-.3474509-.2197446-.5813871-.2215015-.054202-.0002738-.098873-.044281-.098561-.096613.0005111-.052096.045178-.095085.0990014-.0950847zm-1.0048074.2252005c.039359.00669.075096.026976.1031352.060271.0003899.0004336.0006442.0007789.00109.00131.0008927.00105.00218.00232.0037.00413.00304.00363.00731.00881.01262.015231.010614.012834.025154.030825.041123.05048.031939.039311.069441.086161.092691.1174958h.0002229c.043376.059032.1005525.1516821.130119.2038768.056678.100965.02289.2061501-.037207.2521809l-.1011769.080942c-.041262.033272-.037305.098792-.037207.1005243.00105.00395.1490464.5574731.6995358.6991004.00173.0001014.06714.00403.099871-.037207l.081159-.1016121c.046299-.059953.1515001-.092721.2521809-.036336h.0002228c.052415.029171.1443787.086101.2038772.1301157.031448.023075.078005.060688.1172782.092691.038402.031303.069354.057177.070933.05853.064421.053741.080129.1380489.040471.2206312v.00457l-.00283.00479c-.043179.075576-.1005703.1461639-.1716736.2110575-.0005348.0004884-.0007705.00105-.00131.00152-.0004884.0006147.0000544.0001671-.0008674.00109l-.0006568.0004337-.0006568.0008674c-.060083.050395-.1207961.079431-.1821215.086601-.00895.00201-.01834.00275-.028939.00218-.026133.0003899-.052529-.00351-.077895-.011967l-.00544-.00196-.00326-.00392c-.089547-.025815-.2309492-.085032-.4684614-.2160647-.1572238-.086928-.2885508-.1763002-.3990509-.2643658-.058799-.046088-.118956-.09895-.1799428-.1592723l-.00109-.00109-.00109-.00131c-.0003231-.0004252-.00177-.00199-.00392-.00413h-.0004337l-.00609-.00609c-.00333-.00333-.00469-.00534-.00566-.00631-.0028-.00252-.00537-.00515-.00609-.00587-.0609884-.0610088-.1135416-.1215656-.1599289-.1797294-.0880533-.1106682-.1767209-.2420224-.2634953-.3992685-.1302864-.2372449-.189823-.3773484-.2160619-.4673725l-.00457-.00261-.00218-.0074c-.0081-.026198-.011963-.052912-.011963-.079199 0-.00945-.0000545-.018276.00218-.028069.00699-.057785.037371-.1154576.083335-.1727625v-.00522l.00522-.00566c.066429-.072313.1373558-.1299741.2130144-.1729802l.00457-.00261h.00326c.04083-.019634.081711-.026651.1194542-.020235zm1.0106821.2206311c.1711827.012165.3147099.072003.4160225.178855.1008514.1063235.1508978.2434337.1473051.3970925-.00117.050792-.044955.092256-.097478.092256h-.00239c-.053303-.00113-.096462-.044729-.095303-.096172v-.0004337c.00259-.1118053-.028297-.1936044-.096173-.2652368v-.0002189c-.06651-.070323-.154993-.1088809-.286126-.1181486-.053028-.00374-.09439-.049468-.090515-.1007419.00387-.051217.051571-.090995.1046584-.087252z" fill="#d0d0d0" fill-rule="evenodd" stroke-width=".264583"/></svg>

<?xml version="1.0" encoding="UTF-8" standalone="no"?>
<!-- Created with Inkscape (http://www.inkscape.org/) -->

<svg
   xmlns:dc="http://purl.org/dc/elements/1.1/"
   xmlns:cc="http://creativecommons.org/ns#"
   xmlns:rdf="http://www.w3.org/1999/02/22-rdf-syntax-ns#"
   xmlns:svg="http://www.w3.org/2000/svg"
   xmlns="http://www.w3.org/2000/svg"
   xmlns:xlink="http://www.w3.org/1999/xlink"
   xmlns:sodipodi="http://sodipodi.sourceforge.net/DTD/sodipodi-0.dtd"
   xmlns:inkscape="http://www.inkscape.org/namespaces/inkscape"
   width="16"
   height="16"
   viewBox="0 0 4.2333332 4.2333332"
   version="1.1"
   id="svg8"
   inkscape:version="0.92+devel (4546dc857e, 2017-07-25, custom)"
   sodipodi:docname="glyph-viber.svg">
  <defs
     id="defs2">
    <linearGradient
       gradientTransform="matrix(0.11140351,0,0,0.11140351,-0.5570175,-0.6684211)"
       xlink:href="#linearGradient4167"
       id="linearGradient4183"
       x1="24.112"
       y1="36.417"
       x2="17.358"
       y2="8.9840002"
       gradientUnits="userSpaceOnUse" />
    <linearGradient
       id="linearGradient4167">
      <stop
         style="stop-color:#7d519e;stop-opacity:1;"
         offset="0"
         id="stop12" />
      <stop
         style="stop-color:#a987c2;stop-opacity:1"
         offset="1"
         id="stop14" />
    </linearGradient>
  </defs>
  <sodipodi:namedview
     id="base"
     pagecolor="#002466"
     bordercolor="#ffffff"
     borderopacity="0.38039216"
     inkscape:pageopacity="1"
     inkscape:pageshadow="2"
     inkscape:zoom="36.415999"
     inkscape:cx="10.094581"
     inkscape:cy="7.9162778"
     inkscape:document-units="px"
     inkscape:current-layer="svg8"
     inkscape:document-rotation="0"
     showgrid="false"
     inkscape:showpageshadow="false"
     borderlayer="true"
     inkscape:window-width="1920"
     inkscape:window-height="1051"
     inkscape:window-x="0"
     inkscape:window-y="0"
     inkscape:window-maximized="1"
     units="px" />
  <metadata
     id="metadata5">
    <rdf:RDF>
      <cc:Work
         rdf:about="">
        <dc:format>image/svg+xml</dc:format>
        <dc:type
           rdf:resource="http://purl.org/dc/dcmitype/StillImage" />
        <dc:title></dc:title>
      </cc:Work>
    </rdf:RDF>
  </metadata>
  <path
     inkscape:connector-curvature="0"
     style="fill:#d0d0d0;fill-opacity:1;fill-rule:evenodd;stroke-width:0.26458332"
     d="M 1.1140351,0 C 0.4968596,0 0,0.4968596 0,1.1140351 V 2.2280702 C 0,2.8076286 0.4381594,3.2811034 1.0026316,3.3366657 V 4.2333332 L 1.8938597,3.3421053 h 1.2254386 c 0.6171754,0 1.1140349,-0.4968597 1.1140349,-1.1140351 V 1.1140351 C 4.2333332,0.4968596 3.7364737,0 3.1192983,0 Z m 1.2130363,0.445614 h 8.673e-4 c 0.2821072,0.002 0.5272259,0.095218 0.7191184,0.2756802 0.097166,0.091585 0.171636,0.2017111 0.2206312,0.3261599 0.048412,0.1231789 0.073155,0.2631479 0.074414,0.4153697 v 2.228e-4 c 4.337e-4,0.052286 -0.04448,0.095889 -0.098566,0.09639 -6.68e-5,2.23e-5 -0.00108,2.228e-4 -0.00109,2.228e-4 -0.053964,0 -0.098662,-0.042913 -0.099219,-0.094867 V 1.4645698 C 3.1412018,1.2034066 3.0612981,1.0032702 2.9080181,0.8588132 2.752911,0.7130016 2.5605672,0.6390686 2.326631,0.6373117 2.272429,0.6370379 2.227758,0.5930307 2.22807,0.5406987 2.2285811,0.4886027 2.273248,0.4456137 2.3270714,0.445614 Z M 1.322264,0.6708145 c 0.039359,0.00669 0.075096,0.026976 0.1031352,0.060271 3.899e-4,4.336e-4 6.442e-4,7.789e-4 0.00109,0.00131 8.927e-4,0.00105 0.00218,0.00232 0.0037,0.00413 0.00304,0.00363 0.00731,0.00881 0.01262,0.015231 0.010614,0.012834 0.025154,0.030825 0.041123,0.05048 0.031939,0.039311 0.069441,0.086161 0.092691,0.1174958 h 2.229e-4 c 0.043376,0.059032 0.1005525,0.1516821 0.130119,0.2038768 0.056678,0.100965 0.02289,0.2061501 -0.037207,0.2521809 L 1.5685812,1.456732 c -0.041262,0.033272 -0.037305,0.098792 -0.037207,0.1005243 0.00105,0.00395 0.1490464,0.5574731 0.6995358,0.6991004 0.00173,1.014e-4 0.06714,0.00403 0.099871,-0.037207 L 2.41194,2.1175376 c 0.046299,-0.059953 0.1515001,-0.092721 0.2521809,-0.036336 h 2.228e-4 c 0.052415,0.029171 0.1443787,0.086101 0.2038772,0.1301157 0.031448,0.023075 0.078005,0.060688 0.1172782,0.092691 0.038402,0.031303 0.069354,0.057177 0.070933,0.05853 0.064421,0.053741 0.080129,0.1380489 0.040471,0.2206312 v 0.00457 l -0.00283,0.00479 c -0.043179,0.075576 -0.1005703,0.1461639 -0.1716736,0.2110575 -5.348e-4,4.884e-4 -7.705e-4,0.00105 -0.00131,0.00152 -4.884e-4,6.147e-4 5.44e-5,1.671e-4 -8.674e-4,0.00109 l -6.568e-4,4.337e-4 -6.568e-4,8.674e-4 c -0.060083,0.050395 -0.1207961,0.079431 -0.1821215,0.086601 -0.00895,0.00201 -0.01834,0.00275 -0.028939,0.00218 -0.026133,3.899e-4 -0.052529,-0.00351 -0.077895,-0.011967 l -0.00544,-0.00196 -0.00326,-0.00392 C 2.531706,2.8526171 2.3903038,2.7934001 2.1527916,2.6623674 1.9955678,2.5754394 1.8642408,2.4860672 1.7537407,2.3980016 1.6949417,2.3519136 1.6347847,2.2990516 1.5737979,2.2387293 l -0.00109,-0.00109 -0.00109,-0.00131 c -3.231e-4,-4.252e-4 -0.00177,-0.00199 -0.00392,-0.00413 h -4.337e-4 l -0.00609,-0.00609 c -0.00333,-0.00333 -0.00469,-0.00534 -0.00566,-0.00631 -0.0028,-0.00252 -0.00537,-0.00515 -0.00609,-0.00587 C 1.4884358,2.1529205 1.4358826,2.0923637 1.3894953,2.0341999 1.301442,1.9235317 1.2127744,1.7921775 1.126,1.6349314 0.9957136,1.3976865 0.936177,1.257583 0.9099381,1.1675589 l -0.00457,-0.00261 -0.00218,-0.0074 c -0.0081,-0.026198 -0.011963,-0.052912 -0.011963,-0.079199 0,-0.00945 -5.45e-5,-0.018276 0.00218,-0.028069 0.00699,-0.057785 0.037371,-0.1154576 0.083335,-0.1727625 v -0.00522 l 0.00522,-0.00566 C 1.0483891,0.7943254 1.1193159,0.7366643 1.1949745,0.6936582 l 0.00457,-0.00261 h 0.00326 c 0.04083,-0.019634 0.081711,-0.026651 0.1194542,-0.020235 z m 1.0106821,0.2206311 c 0.1711827,0.012165 0.3147099,0.072003 0.4160225,0.178855 0.1008514,0.1063235 0.1508978,0.2434337 0.1473051,0.3970925 -0.00117,0.050792 -0.044955,0.092256 -0.097478,0.092256 h -0.00239 c -0.053303,-0.00113 -0.096462,-0.044729 -0.095303,-0.096172 V 1.4630434 C 2.7036927,1.3512381 2.6728057,1.269439 2.6049297,1.1978066 v -2.189e-4 c -0.06651,-0.070323 -0.154993,-0.1088809 -0.286126,-0.1181486 -0.053028,-0.00374 -0.09439,-0.049468 -0.090515,-0.1007419 0.00387,-0.051217 0.051571,-0.090995 0.1046584,-0.087252 z"
     id="path23"
     inkscape:label="#" />
</svg>
